X:377
T:Il fait bon dormir sous le houx
C:trad.
O:France
Z:S. Piron
M:4/4
L:1/4
Q:1/4=75
K:G
GG/2A/2B/2c/2d|dcB2|GG/2A/2B/2c/2d|dcB2:|
|:BB/2c/2B/2G/2A/2B/2|cBAG|A2G2:|
|:GG/2A/2B/2c/2d|dcB2|GG/2A/2B/2c/2d|dcB2:|
|:BB/2c/2B/2G/2A/2B/2|cBAG|A2G2:|
